src/pos-icons/human-female-girl.svg

<svg height="24" viewBox="0 0 24 24" width="24" xmlns="http://www.w3.org/2000/svg"><path d="m7.5 2a2 2 0 0 1 2 2 2 2 0 0 1 -2 2 2 2 0 0 1 -2-2 2 2 0 0 1 2-2m-1.5 20v-6h-3l2.6-7.6c.3-.8 1-1.4 1.9-1.4s1.7.6 1.9 1.4l2.6 7.6h-3v6zm8.5-10a2 2 0 0 1 2-2 2 2 0 0 1 2 2 2 2 0 0 1 -2 2 2 2 0 0 1 -2-2m.5 3h3l1.5 4h-1.5v3h-3v-3h-1.5z"/></svg>

<?xml version="1.0" encoding="UTF-8"?><!DOCTYPE svg PUBLIC "-//W3C//DTD SVG 1.1//EN" "http://www.w3.org/Graphics/SVG/1.1/DTD/svg11.dtd"><svg xmlns="http://www.w3.org/2000/svg" xmlns:xlink="http://www.w3.org/1999/xlink" version="1.1" id="mdi-human-female-girl" width="24" height="24" viewBox="0 0 24 24"><path d="M7.5,2A2,2 0 0,1 9.5,4A2,2 0 0,1 7.5,6A2,2 0 0,1 5.5,4A2,2 0 0,1 7.5,2M6,22V16H3L5.6,8.4C5.9,7.6 6.6,7 7.5,7C8.4,7 9.2,7.6 9.4,8.4L12,16H9V22H6M14.5,12A2,2 0 0,1 16.5,10A2,2 0 0,1 18.5,12A2,2 0 0,1 16.5,14A2,2 0 0,1 14.5,12M15,15H18L19.5,19H18V22H15V19H13.5L15,15Z" /></svg>
